src/assets/svg/ic_cleanup.svg

<svg xmlns="http://www.w3.org/2000/svg" width="16" height="16">
    <path d="M10 7V3H8.5V2H10V1a1 1 0 00-1-1H8a1 1 0 00-1 1v6H3v2h11V7zm-7 5l-2 4h2l2-4h1l-2 4h2l2-4h1l-2 4h2l2-4h1l-2 4h2l2-4v-2H3z"/>
</svg>

<svg id="icons" xmlns="http://www.w3.org/2000/svg" width="16" height="16" viewBox="0 0 16 16"><title>cleanup</title><path d="M10,7V3H8.5V2H10V1A1,1,0,0,0,9,0H8A1,1,0,0,0,7,1V7H3V9H14V7ZM3,12,1,16H3l2-4H6L4,16H6l2-4H9L7,16H9l2-4h1l-2,4h2l2-4V10H3Z"/></svg>
